Adwaita++-Light/panel/24/uget-tray-downloading.svg

<svg height="24" width="24" xmlns="http://www.w3.org/2000/svg">
  <path d="m20 11h-4v2h2l-4 5-4-5h2v-6h4v2.0000001h4v-2.0000001s0-3-3-3h-6s-3 0-3 3v1 6h-2v-5.9999999h-2v5.9999999c0 2 2 2 2 2h2v1c0 3 3 3 3 3h6c3 0 3-3 3-3" fill="#444"/>
  <path d="m13 8v6h-.917969l1.917969 2.398438 1.917968-2.398438h-.917968v-2-1-3z" fill="#4285f4"/>
</svg>

<svg xmlns="http://www.w3.org/2000/svg" width="24" height="24" version="1.1">
 <defs>
  <style id="current-color-scheme" type="text/css">
   .ColorScheme-Text { color:#444444; } .ColorScheme-Highlight { color:#4285f4; }
  </style>
 </defs>
 <path style="fill:currentColor" class="ColorScheme-Text" d="m 20,11 h -4 v 2 h 2 l -4,5 -4,-5 h 2 V 7 h 4 v 2.0000001 h 4 V 7 C 20,7 20,4 17,4 H 11 C 11,4 8,4 8,7 v 1 6 H 6 V 8.0000001 H 4 V 14 c 0,2 2,2 2,2 h 2 v 1 c 0,3 3,3 3,3 h 6 c 3,0 3,-3 3,-3"/>
 <path style="fill:currentColor" class="ColorScheme-Highlight" d="m 13,8 v 6 H 12.082031 L 14,16.398438 15.917968,14 H 15 V 12 11 8 Z"/>
</svg>
